22x22/places/folder-brown-development.svg

<svg xmlns="http://www.w3.org/2000/svg" width="22" height="22" version="1"><rect style="opacity:.2" width="20" height="12" x="1" y="8.5" rx="1" ry="1"/><path style="fill:#3c3f4c" d="M1 16c0 .554.446 1 1 1h18c.554 0 1-.446 1-1V5c0-.554-.446-1-1-1h-9C9.5 4 9 2 7.5 2H2c-.554 0-1 .446-1 1"/><rect style="opacity:.2" width="20" height="12" x="1" y="7.5" rx="1" ry="1"/><rect style="fill:#f4f4f7" width="16" height="8" x="3" y="6" rx="1" ry="1"/><rect style="fill:#555e70" width="20" height="12" x="1" y="8" rx="1" ry="1"/><path style="opacity:.1;fill:#f4f4f7" d="M2 2c-.554 0-1 .446-1 1v.5c0-.554.446-1 1-1h5.5c1.5 0 2 2 3.5 2h9c.554 0 1 .446 1 1V5c0-.554-.446-1-1-1h-9C9.5 4 9 2 7.5 2z"/><path style="fill:#3d3226" d="M10 10v1.174a3 3 0 0 0-.291.121l-.83-.83-1.414 1.414.83.83a3 3 0 0 0-.12.291H7v2h1.174a3 3 0 0 0 .12.291l-.83.83 1.415 1.414.83-.83a3 3 0 0 0 .291.119V18h2v-1.174a3 3 0 0 0 .291-.121l.83.83 1.414-1.414-.83-.83a3 3 0 0 0 .119-.291H15v-2h-1.174a3 3 0 0 0-.121-.291l.83-.83-1.414-1.414-.83.83a3 3 0 0 0-.291-.119V10h-2zm1 2a2 2 0 0 1 2 2 2 2 0 0 1-2 2 2 2 0 0 1-2-2 2 2 0 0 1 2-2z"/></svg>

<svg xmlns="http://www.w3.org/2000/svg" width="22" height="22" version="1">
 <rect style="opacity:0.2" width="20" height="12" x="1" y="8.5" rx="1" ry="1"/>
 <path style="fill:#3c3f4c" d="M 1,16 C 1,16.554 1.446,17 2,17 H 20 C 20.554,17 21,16.554 21,16 V 5 C 21,4.446 20.554,4 20,4 H 11 C 9.5,4 9,2 7.5,2 H 2 C 1.446,2 1,2.446 1,3"/>
 <rect style="opacity:0.2" width="20" height="12" x="1" y="7.5" rx="1" ry="1"/>
 <rect style="fill:#f4f4f7" width="16" height="8" x="3" y="6" rx="1" ry="1"/>
 <rect style="fill:#555e70" width="20" height="12" x="1" y="8" rx="1" ry="1"/>
 <path style="opacity:0.1;fill:#f4f4f7" d="M 2,2 C 1.446,2 1,2.446 1,3 V 3.5 C 1,2.946 1.446,2.5 2,2.5 H 7.5 C 9,2.5 9.5,4.5 11,4.5 H 20 C 20.554,4.5 21,4.946 21,5.5 V 5 C 21,4.446 20.554,4 20,4 H 11 C 9.5,4 9,2 7.5,2 Z"/>
 <path style="fill:#3d3226" d="M 10,10 V 11.174 A 3,3 0 0 0 9.7088,11.295 L 8.8787,10.465 7.4646,11.879 8.2947,12.709 A 3,3 0 0 0 8.1756,13 H 7 V 15 H 8.1736 A 3,3 0 0 0 8.2947,15.291 L 7.4646,16.121 8.8787,17.535 9.7088,16.705 A 3,3 0 0 0 10,16.824 V 18 H 12 V 16.826 A 3,3 0 0 0 12.291,16.705 L 13.121,17.535 14.535,16.121 13.705,15.291 A 3,3 0 0 0 13.824,15 H 15 V 13 H 13.826 A 3,3 0 0 0 13.705,12.709 L 14.535,11.879 13.121,10.465 12.291,11.295 A 3,3 0 0 0 12,11.176 V 10 H 10 Z M 11,12 A 2,2 0 0 1 13,14 2,2 0 0 1 11,16 2,2 0 0 1 9,14 2,2 0 0 1 11,12 Z"/>
</svg>
